apps/scalable/gravit.svg

<svg xmlns="http://www.w3.org/2000/svg" style="isolation:isolate" width="256" height="256"><defs><filter id="a" width="270.648" height="254.338" x="-7.32" y="2.95" filterUnits="userSpaceOnUse"><feGaussianBlur xmlns="http://www.w3.org/2000/svg" in="SourceGraphic" stdDeviation="4.294"/><feOffset xmlns="http://www.w3.org/2000/svg" dy="4" result="pf_100_offsetBlur"/><feFlood xmlns="http://www.w3.org/2000/svg" flood-opacity=".4"/><feComposite xmlns="http://www.w3.org/2000/svg" in2="pf_100_offsetBlur" operator="in" result="pf_100_dropShadow"/><feBlend xmlns="http://www.w3.org/2000/svg" in="SourceGraphic" in2="pf_100_dropShadow"/></filter></defs><path fill="#333" d="M165.685 11.947c74.055 0 84.639 10.557 84.639 84.544v59.251c0 73.986-10.584 84.543-84.639 84.543h-75.37c-74.055 0-84.639-10.557-84.639-84.543V96.491c0-73.987 10.584-84.544 84.639-84.544h75.37z" filter="url(#a)"/><path fill="#C63166" d="M5.989 83.662c.33-.297.664-.558.955-.827 4.541-4.189 15.281-13.707 18.428-16.334 1.543-1.287 7.542-6.564 13.33-11.719 5.787-5.154 13.268-11.745 16.625-14.648 3.356-2.903 10.317-9.234 15.469-14.063 3.156-2.959 9.74-8.818 15.547-14.025-5.112.031-9.738.172-14.231.342-25.536 25.126-45.32 44.809-65.987 65.649-.068 1.771-.092 3.758-.136 5.625zM192.267 12.686c-.583-.038-1.083-.103-1.678-.138-7.376-.433-15.641-.598-24.898-.598h-64.766c-4.958 7.679-9.643 14.934-17.063 26.44a335437.046 335437.046 0 0 1-29.795 46.188c-5.583 8.652-17.923 27.783-27.422 42.51-7.201 11.164-14.548 22.544-20.875 32.346.043 7.629.14 14.911.51 21.187.217 3.685.501 7.147.865 10.401.364 3.254.808 6.298 1.346 9.147.537 2.848 1.166 5.501 1.902 7.97.736 2.469 1.58 4.754 2.541 6.87a39.523 39.523 0 0 0 3.252 5.849 33.282 33.282 0 0 0 4.045 4.906 33.274 33.274 0 0 0 4.91 4.038 39.61 39.61 0 0 0 5.858 3.25c2.118.959 4.405 1.8 6.877 2.535 2.471.735 5.127 1.364 7.978 1.9 2.851.536 5.9.979 9.156 1.342 3.257.363 6.722.647 10.411.863 7.376.433 15.641.598 24.898.598h41.534c14.619-66.366 30-156.312 60.414-227.604z"/><path fill="#B8DA6C" d="M72.112 12.388c-2.113.079-4.709.043-6.691.16-3.689.216-7.154.5-10.411.863-3.256.363-6.305.805-9.156 1.342-2.851.536-5.507 1.165-7.978 1.9-2.472.735-4.759 1.576-6.877 2.535a39.61 39.61 0 0 0-5.858 3.25 33.274 33.274 0 0 0-4.91 4.038 33.282 33.282 0 0 0-4.045 4.906 39.523 39.523 0 0 0-3.252 5.849c-.961 2.116-1.805 4.401-2.541 6.87-.736 2.469-1.365 5.122-1.902 7.97-.538 2.849-.982 5.893-1.346 9.147a199.123 199.123 0 0 0-.865 10.401c-.112 1.897-.077 4.388-.155 6.406 20.657-20.827 40.476-40.54 65.987-65.637zM100.925 11.95H90.319c-1.478 0-2.548.087-3.976.096-5.807 5.207-12.391 11.066-15.547 14.025-5.152 4.829-12.113 11.16-15.469 14.063-3.357 2.903-10.839 9.494-16.627 14.648-5.788 5.155-11.787 10.431-13.33 11.719-3.147 2.627-13.887 12.145-18.428 16.334-.291.268-.624.529-.953.825-.103 4.258-.309 8.062-.309 12.834v59.252c0 1.371.08 2.359.088 3.686 6.327-9.802 13.676-21.182 20.877-32.346 9.499-14.727 21.839-33.858 27.422-42.51 5.583-8.653 18.991-29.436 29.795-46.188 7.42-11.505 12.105-18.759 17.063-26.438z"/><path fill="#778B3C" d="M180.699 239.931c3.217-.094 6.96-.067 9.89-.239 3.689-.216 7.154-.5 10.411-.863 3.256-.363 6.305-.806 9.156-1.342 2.851-.536 5.507-1.165 7.978-1.9 2.472-.735 4.759-1.576 6.877-2.535a39.61 39.61 0 0 0 5.858-3.25 33.274 33.274 0 0 0 4.91-4.038 33.282 33.282 0 0 0 4.045-4.906 39.523 39.523 0 0 0 3.252-5.849c.961-2.116 1.805-4.401 2.541-6.87.736-2.469 1.365-5.122 1.902-7.97.538-2.849.982-5.893 1.346-9.147.364-3.254.648-6.716.865-10.401.174-2.951.146-6.719.241-9.963l-69.272 69.273z"/><path fill="#EDDF36" d="M249.971 170.66c.141-4.854.359-9.369.359-14.914V96.494c0-9.249-.166-17.506-.6-24.875a199.123 199.123 0 0 0-.865-10.401c-.364-3.254-.808-6.298-1.346-9.147-.537-2.848-1.166-5.501-1.902-7.97-.736-2.469-1.58-4.754-2.541-6.87a39.523 39.523 0 0 0-3.252-5.849 33.282 33.282 0 0 0-4.045-4.906 33.274 33.274 0 0 0-4.91-4.038 39.61 39.61 0 0 0-5.858-3.25c-2.118-.959-4.405-1.8-6.877-2.535-2.471-.735-5.127-1.364-7.978-1.9-2.851-.537-5.9-.979-9.156-1.342a199.53 199.53 0 0 0-10.411-.863c-1.471-.087-3.423-.054-4.966-.119-35.127 77.193-57.876 158.397-63.852 227.861h43.92c5.58 0 10.127-.217 15.01-.359l69.27-69.271z"/><g opacity=".1"><path fill="#FFF" d="M5.676 126.116v29.626c0 73.986 10.584 84.543 84.639 84.543h75.37c74.055 0 84.639-10.557 84.639-84.543v-29.626H5.676z"/></g><g opacity=".4"><linearGradient id="b" x1=".517" x2=".517" y2="1"><stop offset="0%" stop-color="#fff"/><stop offset="12.5%" stop-opacity=".098" stop-color="#fff"/><stop offset="92.5%" stop-opacity=".098"/><stop offset="100%" stop-opacity=".498"/></linearGradient><path fill="none" stroke="url(#b)" stroke-linecap="round" stroke-linejoin="round" stroke-width="4.077" d="M165.685 11.947c74.055 0 84.639 10.557 84.639 84.544v59.251c0 73.986-10.584 84.543-84.639 84.543h-75.37c-74.055 0-84.639-10.557-84.639-84.543V96.491c0-73.987 10.584-84.544 84.639-84.544h75.37z" vector-effect="non-scaling-stroke"/></g></svg>

<svg xmlns="http://www.w3.org/2000/svg" style="isolation:isolate" width="256" height="256" viewBox="0 0 256 256">
 <defs>
  <filter id="4SqTVjjPsAOfaNtU1VOWuCmA7UgabeCM" width="270.648" height="254.338" x="-7.32" y="2.95" filterUnits="userSpaceOnUse">
   <feGaussianBlur xmlns="http://www.w3.org/2000/svg" in="SourceGraphic" stdDeviation="4.294"/>
   <feOffset xmlns="http://www.w3.org/2000/svg" dx="0" dy="4" result="pf_100_offsetBlur"/>
   <feFlood xmlns="http://www.w3.org/2000/svg" flood-opacity=".4"/>
   <feComposite xmlns="http://www.w3.org/2000/svg" in2="pf_100_offsetBlur" operator="in" result="pf_100_dropShadow"/>
   <feBlend xmlns="http://www.w3.org/2000/svg" in="SourceGraphic" in2="pf_100_dropShadow" mode="normal"/>
  </filter>
 </defs>
 <g filter="url(#4SqTVjjPsAOfaNtU1VOWuCmA7UgabeCM)">
  <path fill="#333333" d="M 165.685 11.947 C 239.74 11.947 250.324 22.504 250.324 96.491 L 250.324 155.742 C 250.324 229.728 239.74 240.285 165.685 240.285 L 90.315 240.285 C 16.26 240.285 5.676 229.728 5.676 155.742 L 5.676 96.491 C 5.676 22.504 16.26 11.947 90.315 11.947 L 165.685 11.947 Z"/>
 </g>
 <g>
  <path fill="#C63166" d="M 5.989 83.662 C 6.319 83.365 6.653 83.104 6.944 82.835 C 11.485 78.646 22.225 69.128 25.372 66.501 C 26.915 65.214 32.914 59.937 38.702 54.782 C 44.489 49.628 51.97 43.037 55.327 40.134 C 58.683 37.231 65.644 30.9 70.796 26.071 C 73.952 23.112 80.536 17.253 86.343 12.046 C 81.231 12.077 76.605 12.218 72.112 12.388 C 46.576 37.514 26.792 57.197 6.125 78.037 C 6.057 79.808 6.033 81.795 5.989 83.662 Z"/>
  <path fill="#C63166" d="M 192.267 12.686 C 191.684 12.648 191.184 12.583 190.589 12.548 C 183.213 12.115 174.948 11.95 165.691 11.95 L 100.925 11.95 C 95.967 19.629 91.282 26.884 83.862 38.39 C 73.058 55.142 59.65 75.925 54.067 84.578 C 48.484 93.23 36.144 112.361 26.645 127.088 C 19.444 138.252 12.097 149.632 5.77 159.434 C 5.813 167.063 5.91 174.345 6.28 180.621 C 6.497 184.306 6.781 187.768 7.145 191.022 C 7.509 194.276 7.953 197.32 8.491 200.169 C 9.028 203.017 9.657 205.67 10.393 208.139 C 11.129 210.608 11.973 212.893 12.934 215.009 C 13.895 217.124 14.974 219.07 16.186 220.858 C 17.398 222.646 18.742 224.278 20.231 225.764 C 21.719 227.251 23.351 228.592 25.141 229.802 C 26.931 231.012 28.88 232.092 30.999 233.052 C 33.117 234.011 35.404 234.852 37.876 235.587 C 40.347 236.322 43.003 236.951 45.854 237.487 C 48.705 238.023 51.754 238.466 55.01 238.829 C 58.267 239.192 61.732 239.476 65.421 239.692 C 72.797 240.125 81.062 240.29 90.319 240.29 L 131.853 240.29 C 146.472 173.924 161.853 83.978 192.267 12.686 Z"/>
  <path fill="#B8DA6C" d="M 72.112 12.388 C 69.999 12.467 67.403 12.431 65.421 12.548 C 61.732 12.764 58.267 13.048 55.01 13.411 C 51.754 13.774 48.705 14.216 45.854 14.753 C 43.003 15.289 40.347 15.918 37.876 16.653 C 35.404 17.388 33.117 18.229 30.999 19.188 C 28.88 20.148 26.931 21.228 25.141 22.438 C 23.351 23.648 21.719 24.989 20.231 26.476 C 18.742 27.962 17.398 29.594 16.186 31.382 C 14.974 33.17 13.895 35.116 12.934 37.231 C 11.973 39.347 11.129 41.632 10.393 44.101 C 9.657 46.57 9.028 49.223 8.491 52.071 C 7.953 54.92 7.509 57.964 7.145 61.218 C 6.781 64.472 6.497 67.934 6.28 71.619 C 6.168 73.516 6.203 76.007 6.125 78.025 C 26.782 57.198 46.601 37.485 72.112 12.388 Z"/>
  <path fill="#B8DA6C" d="M 100.925 11.95 L 90.319 11.95 C 88.841 11.95 87.771 12.037 86.343 12.046 C 80.536 17.253 73.952 23.112 70.796 26.071 C 65.644 30.9 58.683 37.231 55.327 40.134 C 51.97 43.037 44.488 49.628 38.7 54.782 C 32.912 59.937 26.913 65.213 25.37 66.501 C 22.223 69.128 11.483 78.646 6.942 82.835 C 6.651 83.103 6.318 83.364 5.989 83.66 C 5.886 87.918 5.68 91.722 5.68 96.494 L 5.68 155.746 C 5.68 157.117 5.76 158.105 5.768 159.432 C 12.095 149.63 19.444 138.25 26.645 127.086 C 36.144 112.359 48.484 93.228 54.067 84.576 C 59.65 75.923 73.058 55.14 83.862 38.388 C 91.282 26.883 95.967 19.629 100.925 11.95 Z"/>
  <path fill="#778B3C" d="M 180.699 239.931 C 183.916 239.837 187.659 239.864 190.589 239.692 C 194.278 239.476 197.743 239.192 201 238.829 C 204.256 238.466 207.305 238.023 210.156 237.487 C 213.007 236.951 215.663 236.322 218.134 235.587 C 220.606 234.852 222.893 234.011 225.011 233.052 C 227.13 232.092 229.079 231.012 230.869 229.802 C 232.659 228.592 234.291 227.251 235.779 225.764 C 237.268 224.278 238.612 222.646 239.824 220.858 C 241.036 219.07 242.115 217.124 243.076 215.009 C 244.037 212.893 244.881 210.608 245.617 208.139 C 246.353 205.67 246.982 203.017 247.519 200.169 C 248.057 197.32 248.501 194.276 248.865 191.022 C 249.229 187.768 249.513 184.306 249.73 180.621 C 249.904 177.67 249.876 173.902 249.971 170.658 L 180.699 239.931 Z"/>
  <path fill="#EDDF36" d="M 249.971 170.66 C 250.112 165.806 250.33 161.291 250.33 155.746 L 250.33 96.494 C 250.33 87.245 250.164 78.988 249.73 71.619 C 249.513 67.934 249.229 64.472 248.865 61.218 C 248.501 57.964 248.057 54.92 247.519 52.071 C 246.982 49.223 246.353 46.57 245.617 44.101 C 244.881 41.632 244.037 39.347 243.076 37.231 C 242.115 35.116 241.036 33.17 239.824 31.382 C 238.612 29.594 237.268 27.962 235.779 26.476 C 234.291 24.989 232.659 23.648 230.869 22.438 C 229.079 21.228 227.13 20.148 225.011 19.188 C 222.893 18.229 220.606 17.388 218.134 16.653 C 215.663 15.918 213.007 15.289 210.156 14.753 C 207.305 14.216 204.256 13.774 201 13.411 C 197.743 13.048 194.278 12.764 190.589 12.548 C 189.118 12.461 187.166 12.494 185.623 12.429 C 150.496 89.622 127.747 170.826 121.771 240.29 L 165.691 240.29 C 171.271 240.29 175.818 240.073 180.701 239.931 L 249.971 170.66 Z"/>
 </g>
 <g opacity=".1">
  <path fill="#FFFFFF" d="M 5.676 126.116 L 5.676 155.742 C 5.676 229.728 16.26 240.285 90.315 240.285 L 165.685 240.285 C 239.74 240.285 250.324 229.728 250.324 155.742 L 250.324 126.116 L 5.676 126.116 Z"/>
 </g>
 <g opacity=".4">
  <linearGradient id="_lgradient_227" x1=".517" x2=".517" y1="0" y2="1">
   <stop offset="0%" style="stop-color:rgb(255,255,255)"/>
   <stop offset="12.5%" stop-opacity=".098" style="stop-color:rgb(255,255,255)"/>
   <stop offset="92.5%" stop-opacity=".098" style="stop-color:rgb(0,0,0)"/>
   <stop offset="100%" stop-opacity=".498" style="stop-color:rgb(0,0,0)"/>
  </linearGradient>
  <path fill="none" stroke="url(#_lgradient_227)" stroke-linecap="round" stroke-linejoin="round" stroke-width="4.077" d="M 165.685 11.947 C 239.74 11.947 250.324 22.504 250.324 96.491 L 250.324 155.742 C 250.324 229.728 239.74 240.285 165.685 240.285 L 90.315 240.285 C 16.26 240.285 5.676 229.728 5.676 155.742 L 5.676 96.491 C 5.676 22.504 16.26 11.947 90.315 11.947 L 165.685 11.947 Z" vector-effect="non-scaling-stroke"/>
 </g>
</svg>
